X:1
T: Wee Sammy
C:
R:Strathspey
Q: 128
K:A
M:4/4
L:1/16
|:A,3C E3C D3F A3F|E3A c3A GB3 B4|A,3C E3C D3F A3F|E3G B3e cA3 A4|
A,3C E3C D3F A3F|E3A c3A GB3 B4|A,3C E3C D3F A3F|E3G B3e cA3 A4|
a3e c3A d3e f3g|a3e c3A GB3 B4|a3e c3A d3e f3a|((3e2f2e2) ((3d2c2B2) cA3 A4|
a3e c3A d3e f3g|a3e c3A GB3 B4|a3e c3A d3e f3a|((3e2f2e2) ((3d2c2B2) cA3 A4:|
